symbols/web/pan_tool/materialsymbolsrounded/pan_tool_wght100gradN25_48px.svg

<svg xmlns="http://www.w3.org/2000/svg" height="48" width="48"><path d="M25.15 44h11.2q2.2 0 3.725-1.525T41.6 38.75v-24.9q0-1.15-.6-1.925-.6-.775-1.75-.775-.9 0-1.8.6t-1.1 1.65V8.2q0-1.15-.625-1.975Q35.1 5.4 33.95 5.4t-1.7.525q-.55.525-.95 1.175.05-1.5-.6-2.5t-2-1q-1.3 0-1.95.85-.65.85-.65 1.9v3.8q-.3-.7-.9-1.275-.6-.575-1.8-.575-1.15 0-1.75.775-.6.775-.6 1.875v22.2L12.1 28.2q-.5-.25-.975-.2-.475.05-.875.4l-.55.45q-.45.5-.45 1.175T9.7 31.2l11.1 11.15q.8.75 1.975 1.2 1.175.45 2.375.45Zm0-1.1q-.9 0-1.925-.3t-1.575-.85L10.1 30.1q.4-.25.625-.45.225-.2.575-.5L20.5 34q.6.3 1.125 0t.525-.9V10.95q0-.7.275-1.125.275-.425.975-.425t1 .425q.3.425.3 1.125V22.6q0 .6.375 1t.975.4q.6 0 .975-.4t.375-1V6.25q0-.7.275-1.125Q27.95 4.7 28.7 4.7q.7 0 .975.425t.275 1.125V22.6q0 .6.4 1t.95.4q.6 0 1-.4t.4-1V8.1q0-.75.275-1.175.275-.425.975-.425t1 .425q.3.425.3 1.175v14.5q0 .6.375 1t.975.4q.6 0 .975-.4t.375-1v-8.75q0-.7.275-1.15.275-.45 1.025-.45.7 0 .975.45t.275 1.15v24.9q0 1.75-1.225 2.95-1.225 1.2-2.925 1.2Z"/></svg>

<svg xmlns="http://www.w3.org/2000/svg" height="48" width="48"><path d="M25.15 44H36.35Q38.55 44 40.075 42.475Q41.6 40.95 41.6 38.75V13.85Q41.6 12.7 41 11.925Q40.4 11.15 39.25 11.15Q38.35 11.15 37.45 11.75Q36.55 12.35 36.35 13.4V8.2Q36.35 7.05 35.725 6.225Q35.1 5.4 33.95 5.4Q32.8 5.4 32.25 5.925Q31.7 6.45 31.3 7.1Q31.35 5.6 30.7 4.6Q30.05 3.6 28.7 3.6Q27.4 3.6 26.75 4.45Q26.1 5.3 26.1 6.35V10.15Q25.8 9.45 25.2 8.875Q24.6 8.3 23.4 8.3Q22.25 8.3 21.65 9.075Q21.05 9.85 21.05 10.95V33.15L12.1 28.2Q11.6 27.95 11.125 28Q10.65 28.05 10.25 28.4L9.7 28.85Q9.25 29.35 9.25 30.025Q9.25 30.7 9.7 31.2L20.8 42.35Q21.6 43.1 22.775 43.55Q23.95 44 25.15 44ZM25.15 42.9Q24.25 42.9 23.225 42.6Q22.2 42.3 21.65 41.75L10.1 30.1Q10.5 29.85 10.725 29.65Q10.95 29.45 11.3 29.15Q11.3 29.15 11.3 29.15Q11.3 29.15 11.3 29.15L20.5 34Q21.1 34.3 21.625 34Q22.15 33.7 22.15 33.1V10.95Q22.15 10.25 22.425 9.825Q22.7 9.4 23.4 9.4Q24.1 9.4 24.4 9.825Q24.7 10.25 24.7 10.95V22.6Q24.7 23.2 25.075 23.6Q25.45 24 26.05 24Q26.65 24 27.025 23.6Q27.4 23.2 27.4 22.6V6.25Q27.4 5.55 27.675 5.125Q27.95 4.7 28.7 4.7Q29.4 4.7 29.675 5.125Q29.95 5.55 29.95 6.25V22.6Q29.95 23.2 30.35 23.6Q30.75 24 31.3 24Q31.9 24 32.3 23.6Q32.7 23.2 32.7 22.6V8.1Q32.7 7.35 32.975 6.925Q33.25 6.5 33.95 6.5Q34.65 6.5 34.95 6.925Q35.25 7.35 35.25 8.1V22.6Q35.25 23.2 35.625 23.6Q36 24 36.6 24Q37.2 24 37.575 23.6Q37.95 23.2 37.95 22.6V13.85Q37.95 13.15 38.225 12.7Q38.5 12.25 39.25 12.25Q39.95 12.25 40.225 12.7Q40.5 13.15 40.5 13.85V38.75Q40.5 40.5 39.275 41.7Q38.05 42.9 36.35 42.9Z"/></svg>
